X: 247
T:Ollistrum
M:6/8
L:1/8
R:jig
D:Emer Mayock: Playground
Z:Devin McCabe
K:D
(3EFG E F2D|F2d cAG|(3EFG E F2d|dcA ~G3|
!(3EFG E F2D|F2d cde|fed efg|fed cAG:|
K:ADor
!:E2c GAd|A2c cAG|E2c GAd|edc GAG|
!E2c GAd|A2c cAG|~e2c efg|fed A2G:|
